!!!COM: Palestrina, Giovanni Perluigi da
!!!OPR: Ad fugam
!!!OTL: Gloria
**kern	**kern	**kern	**kern
*Ibass	*Itenor	*Icalto	*Icant
!Bassus	!Tenor	!Altus	!Cantus
*clefF4	*clefGv2	*clefG2	*clefG2
*k[]	*k[]	*k[]	*k[]
*G:mix	*G:mix	*G:mix	*G:mix
*M4/2	*M4/2	*M4/2	*M4/2
=1	=1	=1	=1
0r	0r	1g	1r
.	.	1a	1cc
=2	=2	=2	=2
0r	0r	2d	1dd
.	.	2d	.
.	.	2e	2g
.	.	2g	2g
=3	=3	=3	=3
0r	0r	2f	2a
.	.	2e	2cc
.	.	2d	2b
.	.	2f	2a
=4	=4	=4	=4
1G	1r	2e	2g
.	.	2g	2b
1A	1c	2f	2a
.	.	[2e	2cc
=5	=5	=5	=5
2D	1d	4e]	2b
.	.	4d	.
2D	.	1d	2.a
1E	2G	.	.
.	.	.	4g
.	2G	2c#	[2g
=6	=6	=6	=6
1D	1A	0d	2g]
.	.	.	2f#
2r	1G	.	[1g
2G	.	.	.
=7	=7	=7	=7
1E	2r	0r	1g]
.	2c	.	.
1F#	1A	.	1r
=8	=8	=8	=8
1G	1B	2r	1r
.	.	2g	.
1r	1c	2e	2r
.	.	2e	2cc
=9	=9	=9	=9
1r	0r	2f#	2a
.	.	2f#	2a
1G	.	1g	2b
.	.	.	2b
=10	=10	=10	=10
1A	1c	0r	1cc
2G	1d	.	1r
2F	.	.	.
=11	=11	=11	=11
1E	2c	1g	1r
.	2B	.	.
1r	1A	2a	1cc
.	.	2a	.
=12	=12	=12	=12
2r	1r	2.g	2dd
2G	.	.	2dd
.	.	4f	.
2A	2r	4e	2.cc
.	.	4d	.
2A	2c	2e	.
.	.	.	4b
=13	=13	=13	=13
1F	2d	2f	4a
.	.	.	4g
.	2d	2.a	2a
1G	1B	.	2b
.	.	4g	.
.	.	[2g	[2dd
=14	=14	=14	=14
1A	1c	2g]	4dd]
.	.	.	4cc
.	.	2f#	1cc
1G	1d	[1g	.
.	.	.	2b
=15	=15	=15	=15
2r	1c	1g]	0cc
2c	.	.	.
2A	2r	1r	.
2A	2f	.	.
=16	=16	=16	=16
2B	2d	0r	0r
2B	2d	.	.
1c	2e	.	.
.	2e	.	.
=17	=17	=17	=17
1d	1f	2.a	1r
.	.	4a	.
1G	1g	2b	2.dd
.	.	2b	.
.	.	.	4dd
=18	=18	=18	=18
1r	1c	1cc	2ee
.	.	.	2ee
2r	1r	2a	1ff
[2d	.	2a	.
=19	=19	=19	=19
4d]	2r	1b	2dd
4d	.	.	.
2B	2.g	.	2dd
1c	.	2g	1ee
.	4g	.	.
.	2e	[2a	.
=20	=20	=20	=20
2A	1f	4a]	2cc
.	.	4a	.
1B-	.	2f	2.dd
.	2d	1g	.
.	.	.	4dd
2G	[2e	.	2b
=21	=21	=21	=21
1A	2e]	2e	1cc
.	2c	1f	.
2F	1d	.	2a
[2G	.	2d	[2b
=22	=22	=22	=22
2G]	2B	1e	2b]
2E	1c	.	2g
1F	.	2c	1a
.	2A	[2d	.
=23	=23	=23	=23
2D	1B	4d]	2f#
.	.	4d	.
1E	.	2B	2.g
.	2G	2c	.
.	.	.	4g
2C	[2A	[2e	2e
=24	=24	=24	=24
1D	2A]	2e]	2f
.	2F	2.d	1a
1E	1G	.	.
.	.	8c	.
.	.	8B	.
.	.	2c#	[2g
=25	=25	=25	=25
1D	1A	1d	4g]
.	.	.	8f
.	.	.	8e
.	.	.	2f#
2r	1G	1r	1g
2G	.	.	.
=26	=26	=26	=26
2A	2r	0r	0r
2c	2c	.	.
2B	2d	.	.
2A	2f	.	.
=27	=27	=27	=27
2c	2e	0r	0r
2B	2d	.	.
2A	2f	.	.
2G	2e	.	.
=28	=28	=28	=28
4F	2d	1a	1r
4G	.	.	.
4A	2c	.	.
4F	.	.	.
2G	4B	2g	1dd
.	4c	.	.
2G	4d	[2b	.
.	4B	.	.
=29	=29	=29	=29
1A	2c	4b]	2cc
.	.	4a	.
.	2c	1a	2.ee
1B	1d	.	.
.	.	.	4dd
.	.	2g#	[2dd
=30	=30	=30	=30
1A	1e	2a	2dd]
.	.	2e	2cc#
1r	1d	2f	2dd
.	.	2a	2a
=31	=31	=31	=31
0r	0r	2g	2b
.	.	2f	2dd
.	.	2e	2cc
.	.	2g	2b
=32	=32	=32	=32
1r	0r	2f	2a
.	.	2e	2cc
1D	.	2d	2b
.	.	2f	2a
=33	=33	=33	=33
2E	1G	2e	2g
2G	.	2.d	2b
2F	2A	.	2a
.	.	4c	.
2E	2c	2c	[2g
=34	=34	=34	=34
1D	2B	1d	4g]
.	.	.	4f#
.	2A	.	2f#
2r	1G	1B	1g
2G	.	.	.
=35	=35	=35	=35
2A	2r	0r	1e
4A	2c	.	.
4A	.	.	.
2B	2d	.	1r
2B	4d	.	.
.	4d	.	.
=36	=36	=36	=36
1c	2e	0r	0r
.	2e	.	.
2A	1f	.	.
[2d	.	.	.
=37	=37	=37	=37
2d]	2d	1r	0r
2B	1g	.	.
2c	.	2r	.
2c	2e	2g	.
=38	=38	=38	=38
1A	2f	2a	2r
.	2f	4a	2cc
.	.	4a	.
1G	1d	2b	2dd
.	.	2b	4dd
.	.	.	4dd
=39	=39	=39	=39
0r	1c	1cc	2ee
.	.	.	2ee
.	1r	1a	1ff
=40	=40	=40	=40
2.G	1r	2.b	1dd
4G	.	4b	.
2E	2.c	2g	2.ee
[2A	.	[2a	.
.	4c	.	4ee
=41	=41	=41	=41
2A]	2A	2a]	2cc
2F	1d	2a	1dd
1G	.	2b	.
.	2B	2b	2dd
=42	=42	=42	=42
2C	1c	1g	2ee
1c	.	.	2ee
.	2F	2a	1cc
2A	[2f	[2a	.
=43	=43	=43	=43
1B-	2f]	4a]	2dd
.	.	8g	.
.	.	8f	.
.	2d	2g	2.dd
1A	1e	[1a	.
.	.	.	8cc#
.	.	.	8b
.	.	.	2cc#
=44	=44	=44	=44
2r	1d	1a]	0dd
2D	.	.	.
1G	2r	1r	.
.	2G	.	.
=45	=45	=45	=45
2A	1c	1r	0r
2A	.	.	.
2B	2d	2r	.
2d	2d	2d	.
=46	=46	=46	=46
2c	2e	1g	2r
2B	2g	.	2g
1A	2f	2a	1cc
.	2e	2cc	.
=47	=47	=47	=47
2r	1d	2b	2dd
2D	.	2a	2ff
1G	2r	2g	2ee
.	2G	[2b	2dd
=48	=48	=48	=48
2A	1c	4b]	2cc
.	.	4a	.
2A	.	1a	2.ee
1B	2d	.	.
.	.	.	4dd
.	2d	2g#	[2dd
=49	=49	=49	=49
1A	1e	1a	2dd]
.	.	.	2cc#
2r	1d	1r	1dd
2G	.	.	.
=50	=50	=50	=50
2F	2r	0r	0r
2E	2c	.	.
2D	2B	.	.
2F	2A	.	.
=51	=51	=51	=51
1G	2G	2r	1r
.	2B	2g	.
1A	1c	2f	2r
.	.	2e	2cc
=52	=52	=52	=52
1D	1d	2d	2b
.	.	2f	2a
1r	1G	1g	2g
.	.	.	2b
=53	=53	=53	=53
2r	1r	1a	1cc
2A	.	.	.
2B	2r	1d	1dd
2B	2d	.	.
=54	=54	=54	=54
2c	2e	1r	1g
2c	2e	.	.
2A	2f	1a	1r
2d	2f	.	.
=55	=55	=55	=55
2B	2d	2b	1dd
4G	2g	2b	.
4G	.	.	.
2c	2e	2cc	2ee
2A	4c	2cc	2ee
.	4c	.	.
=56	=56	=56	=56
1d	2f	2a	2ff
.	2d	2a	2ff
1G	1g	2b	2dd
.	.	4b	2dd
.	.	4b	.
=57	=57	=57	=57
2r	1c	2cc	2ee
1A	.	2cc	4ee
.	.	.	4ee
.	2r	2a	2ff
2F	[2d	[2a	2ff
=58	=58	=58	=58
1G	2d]	4a]	2dd
.	.	4g	.
.	2B	1g	2.dd
1A	1c	.	.
.	.	.	4cc
.	.	2f#	[2cc
=59	=59	=59	=59
1G	1d	1g	2cc]
.	.	.	2b
2r	1c	1r	1cc
2A	.	.	.
=60	=60	=60	=60
2B	2r	1r	0r
2d	2d	.	.
2c	2e	1g	.
2B	2g	.	.
=61	=61	=61	=61
1A	2f	2a	1cc
.	2e	2cc	.
1r	1d	2b	2dd
.	.	2a	2ff
=62	=62	=62	=62
1G	1r	1g	2ee
.	.	.	2dd
2A	1c	1r	1cc
2c	.	.	.
=63	=63	=63	=63
2B	2d	1r	0r
2A	2f	.	.
1G	2e	2r	.
.	2d	2d	.
=64	=64	=64	=64
0r	1c	2e	2r
.	.	2g	2g
.	1r	2f	2a
.	.	2e	2cc
=65	=65	=65	=65
1D	1r	2d	2b
.	.	2f	2a
2E	1G	2e	2g
2G	.	[2d	2b
=66	=66	=66	=66
2F	2A	4d]	2a
.	.	4c	.
2E	2c	2c	2.g
1D	2B	1d	.
.	.	.	4f#
.	2A	.	2f#
=67	=67	=67	=67
2r	1G	1B	1g
2G	.	.	.
2A	2r	1r	1e
2c	2c	.	.
=68	=68	=68	=68
2B	2d	1r	0r
2A	2f	.	.
1G	2e	2r	.
.	2d	2d	.
=69	=69	=69	=69
0r	1c	2e	2r
.	.	2g	2g
.	1r	2f	2a
.	.	2e	2cc
=70	=70	=70	=70
1D	1r	2d	2b
.	.	2f	2a
2E	1G	2e	2g
2G	.	[2d	2b
=71	=71	=71	=71
2F	2A	4d]	2a
.	.	4c	.
2E	2c	2c	2.g
1D	2B	1d	.
.	.	.	4f#
.	2A	.	2f#
=72	=72	=72	=72
[0G	[0G	[0d	[0g
=73	=73	=73	=73
0G]	0G]	0d]	0g]
==	==	==	==
*-	*-	*-	*-
!!!CDT: 1525/^1526/-1594/2/2
!!!OCY: Italia
!!!AGN: Mass (Canonic)
!!!AST: renaissance, vocal
!!!ASW: Motet (Maffoni)
!!!PWK: Masses, Book 2
!!!RNB: Cadence finals: C
!!!YOR: Le Opere Complete, v. 4, p. 74
!!!YOO: Rome, Italy: Fratelli Scalera
!!!END: 1992//
!!!EED: John Miller
!!!YEC: Copyright 2000, John Miller
!!!YEN: United States of America
!!!YEM: Rights to all derivative electronic formats reserved.
!!!YEM: Refer to licensing agreement for further details.
!!!YEM: This file must be accompanied by the licensing agreement.
!!!YEM: A copy of the licensing agreement may be found at http://www.music-cog.ohio-state.edu/HumdrumDatabases/Palestrina/license.txt
!!!EMD: converted to Humdrum by Bret Aarden
